X: 5
T:Valentine, Fieldtown
M:6/8
L:1/4
A:Fieldtown
P:A (AB3)2(AC3)2A
K:G
P:A
g|gfe ede|edc cBc   |dBg dBG|FAA A2d|
gfe ede|edc cBc   |dBG DAF|GAG G2||
P:B
B/c/|ded dBd|BGG G2A/B/|cAc BGB|FAA A2B/c/|
ded dBd|BGG G2d   |efg dBd|BGG G2||
P:C
B/c/|ded dBd|BGG G2A/B/|\
M:4/4
L:1/4
cA c2|BG B2|FA A2|
A2 AB/c/|\
M:6/8
ded dBd|BGG G2d   |efg dBd|BGG G2||
